public/external-logos/github-enterprise-logo.svg

<svg width="204" height="29" xmlns="http://www.w3.org/2000/svg"><path d="M99.7 12h-9.3v8.3h10.3v1.8H88.5v-21h12.2v1.8H90.5v7.4h9.3c-.1 0-.1 1.7-.1 1.7Zm12.3-.1c0-1.8-1-2.4-2.8-2.4-1.8 0-2.7.3-3.8.8V22h-2V8h1.1l.4 1.1c1.3-.9 2.7-1.4 4.2-1.4 3.3 0 4.7 1.5 4.7 4.2V22h-2l.2-10.1Zm12.5 10.3c-.4.1-.8.1-1.2.1-2.4 0-4.4-1-4.4-3.8V9.6H116v-.8l2.8-.8V4.1l2-.6v4.4h4.3v1.5h-4.3v8.8c0 1.7.9 2.4 2.6 2.4.4 0 .8 0 1.1-.1v1.7Zm8-14.4c4.7 0 5.3 3.2 5.3 7.3v.8h-9.3c.1 2.5.8 4.6 3.9 4.6 2 0 3.2-.2 4.6-.8v1.7c-1.6.7-3.2.9-4.6.9-4.7 0-5.9-3.2-5.9-7.3.2-4 1.3-7.2 6-7.2Zm-3.9 6.5h7.3c0-2.5-.1-4.8-3.4-4.8-3.2 0-3.9 2.4-3.9 4.8Zm19.8-4.6c-.4-.1-.9-.2-1.7-.2-1.9 0-3 .3-4.1.8V22h-2V8h1.1l.4 1.1c1.3-.9 2.9-1.4 4.5-1.4.7 0 1.1.1 1.7.1l.1 1.9Zm4.1 11.4v7.8h-2V8.1h1.1l.4 1.1c1.4-.9 2.8-1.4 4.3-1.4 4.5 0 5.8 3.2 5.8 7.3s-1.2 7.3-5.8 7.3c-1.1-.1-2.5-.4-3.8-1.3Zm7.7-6c0-2.7-.4-5.6-3.8-5.6-1.8 0-2.8.3-3.9.8v9.3c1.1.6 2.1.8 3.9.8 3.4.2 3.8-2.6 3.8-5.3Zm12.4-5.4c-.4-.1-.9-.2-1.7-.2-1.9 0-3 .3-4.1.8V22h-2V8h1.1l.4 1.1c1.3-.9 2.9-1.4 4.5-1.4.7 0 1.1.1 1.7.1l.1 1.9Zm3.4-7.3c.8 0 1.4.7 1.4 1.4s-.7 1.4-1.4 1.4-1.4-.7-1.4-1.4.7-1.4 1.4-1.4Zm-.9 16.8V8.1h1.9v11.4c0 .9.3 1.2 1.1 1.2v1.6c-2 0-3-.8-3-3.1Zm10.4-5.2c4 .4 4.9 1.7 4.9 4 0 2.2-1.4 4.3-5.7 4.3-1.3 0-3.3-.4-4.2-.7v-1.7c.8.3 2.2.7 4.2.7 2.9 0 3.7-1.2 3.7-2.6 0-1.3-.4-2.2-3.1-2.4-4.1-.4-4.9-1.8-4.9-3.7 0-2 1.3-4.2 5.2-4.2 1.3 0 2.8.2 4.1.7v1.7c-1.1-.4-2.2-.7-4.1-.7-2.7 0-3.4 1-3.4 2.4.1 1.3.6 2 3.3 2.2Zm13.2-6.2c4.7 0 5.3 3.2 5.3 7.3v.8h-9.3c.1 2.5.8 4.6 3.9 4.6 2 0 3.2-.2 4.6-.8v1.7c-1.6.7-3.2.9-4.6.9-4.7 0-5.9-3.2-5.9-7.3.2-4 1.3-7.2 6-7.2Zm-4 6.5h7.3c0-2.5-.1-4.8-3.4-4.8-3.2 0-3.8 2.4-3.9 4.8Zm-179-4.5H8.9c-.2 0-.4.1-.4.3v3.3c0 .2.2.3.3.3h2.6v4.2s-.6.2-2.3.2c-2 0-4.7-.8-4.7-6.7 0-6 2.8-6.8 5.5-6.8 2.3 0 3.3.4 4 .6.2.1.4-.1.4-.3l.7-3.3c0-.1 0-.2-.1-.3-.1-.1-1.7-1-5.6-1C4.7.3 0 2.3 0 11.7s5.4 10.8 9.9 10.8c3.8 0 6-1.6 6-1.6.1-.1.1-.2.1-.3V10.1c.1-.2-.1-.3-.3-.3Zm35.6-8.3c0-.2-.1-.3-.3-.3h-3.9c-.2 0-.3.2-.3.3V9h-6V1.5c0-.2-.2-.3-.3-.3h-3.9c-.2 0-.3.2-.3.3v20.2c0 .2.2.3.3.3h3.9c.2 0 .3-.2.3-.3v-8.6h6v8.6c0 .2.2.3.3.3H51c.2 0 .3-.2.3-.3V1.5ZM23.1 4.1c0-1.4-1.1-2.5-2.5-2.5s-2.5 1.1-2.5 2.5 1.1 2.5 2.5 2.5 2.5-1.1 2.5-2.5Zm-.2 13.3V8.1c0-.2-.2-.3-.3-.3h-3.9c-.2 0-.4.2-.4.4v13.3c0 .4.3.5.6.5h3.5c.4 0 .5-.2.5-.5v-4.1Zm43.4-9.6h-3.9c-.2 0-.3.2-.3.3V18s-.9.8-2.4.8c-1.4 0-1.7-.7-1.7-2V8.2c0-.2-.2-.3-.3-.3h-4c-.2 0-.3.2-.3.3v9.3c0 4.1 2.3 5 5.3 5 2.5 0 4.5-1.4 4.5-1.4s.1.8.1.9c0 .1.2.2.3.2h2.5c.2 0 .3-.2.3-.3V8.2c.2-.3.1-.4-.1-.4ZM77 7.3c-2.2 0-3.7.9-3.7.9V1.5c0-.2-.2-.3-.3-.3h-3.9c-.2 0-.3.2-.3.3v20.2c0 .2.2.3.3.3h2.6c.1 0 .2-.1.3-.2.1-.1.2-.9.2-.9s1.6 1.5 4.5 1.5c3.5 0 5.6-1.8 5.6-8 .1-6.2-3.2-7.1-5.3-7.1Zm-1.5 11.4c-1.3 0-2.3-.7-2.3-.7v-6.3s.8-.6 2-.7c1.4-.1 2.7.3 2.7 3.6 0 3.5-.6 4.2-2.4 4.1Zm-41.6-11H31V3.9c0-.2-.1-.2-.3-.2h-4c-.2 0-.2.1-.2.2v4s-2 .5-2.1.5c-.1 0-.2.2-.2.3v2.5c0 .2.2.3.3.3h2v6c0 4.4 3.1 4.9 5.2 4.9.9 0 2.1-.3 2.3-.4.1 0 .2-.2.2-.3V19c0-.2-.2-.3-.3-.3-.2 0-.6.1-1 .1-1.4 0-1.9-.7-1.9-1.5v-5.7h2.9c.2 0 .3-.2.3-.3V8.1c0-.2-.2-.4-.3-.4Z" fill="#212529" fill-rule="nonzero"/></svg>

<?xml version="1.0" encoding="UTF-8"?>
<svg width="204px" height="29px" viewBox="0 0 204 29" version="1.1" xmlns="http://www.w3.org/2000/svg" xmlns:xlink="http://www.w3.org/1999/xlink">
    <!-- Generator: Sketch 50.2 (55047) - http://www.bohemiancoding.com/sketch -->
    <title>github-enterprise-logo</title>
    <desc>Created with Sketch.</desc>
    <defs></defs>
    <g id="Page-1" stroke="none" stroke-width="1" fill="none" fill-rule="evenodd">
        <g id="github-enterprise-logo" fill="#212529" fill-rule="nonzero">
            <path d="M99.7,12 L90.4,12 L90.4,20.3 L100.7,20.3 L100.7,22.1 L88.5,22.1 L88.5,1.1 L100.7,1.1 L100.7,2.9 L90.5,2.9 L90.5,10.3 L99.8,10.3 C99.7,10.3 99.7,12 99.7,12 Z M112,11.9 C112,10.1 111,9.5 109.2,9.5 C107.4,9.5 106.5,9.8 105.4,10.3 L105.4,22 L103.4,22 L103.4,8 L104.5,8 L104.9,9.1 C106.2,8.2 107.6,7.7 109.1,7.7 C112.4,7.7 113.8,9.2 113.8,11.9 L113.8,22 L111.8,22 L112,11.9 Z M124.5,22.2 C124.1,22.3 123.7,22.3 123.3,22.3 C120.9,22.3 118.9,21.3 118.9,18.5 L118.9,9.6 L116,9.6 L116,8.8 L118.8,8 L118.8,4.1 L120.8,3.5 L120.8,7.9 L125.1,7.9 L125.1,9.4 L120.8,9.4 L120.8,18.2 C120.8,19.9 121.7,20.6 123.4,20.6 C123.8,20.6 124.2,20.6 124.5,20.5 L124.5,22.2 Z M132.5,7.8 C137.2,7.8 137.8,11 137.8,15.1 L137.8,15.9 L128.5,15.9 C128.6,18.4 129.3,20.5 132.4,20.5 C134.4,20.5 135.6,20.3 137,19.7 L137,21.4 C135.4,22.1 133.8,22.3 132.4,22.3 C127.7,22.3 126.5,19.1 126.5,15 C126.7,11 127.8,7.8 132.5,7.8 Z M128.6,14.3 L135.9,14.3 C135.9,11.8 135.8,9.5 132.5,9.5 C129.3,9.5 128.6,11.9 128.6,14.3 Z M148.4,9.7 C148,9.6 147.5,9.5 146.7,9.5 C144.8,9.5 143.7,9.8 142.6,10.3 L142.6,22 L140.6,22 L140.6,8 L141.7,8 L142.1,9.1 C143.4,8.2 145,7.7 146.6,7.7 C147.3,7.7 147.7,7.8 148.3,7.8 L148.4,9.7 Z M152.5,21.1 L152.5,28.9 L150.5,28.9 L150.5,8.1 L151.6,8.1 L152,9.2 C153.4,8.3 154.8,7.8 156.3,7.8 C160.8,7.8 162.1,11 162.1,15.1 C162.1,19.2 160.9,22.4 156.3,22.4 C155.2,22.3 153.8,22 152.5,21.1 Z M160.2,15.1 C160.2,12.4 159.8,9.5 156.4,9.5 C154.6,9.5 153.6,9.8 152.5,10.3 L152.5,19.6 C153.6,20.2 154.6,20.4 156.4,20.4 C159.8,20.6 160.2,17.8 160.2,15.1 Z M172.6,9.7 C172.2,9.6 171.7,9.5 170.9,9.5 C169,9.5 167.9,9.8 166.8,10.3 L166.8,22 L164.8,22 L164.8,8 L165.9,8 L166.3,9.1 C167.6,8.2 169.2,7.7 170.8,7.7 C171.5,7.7 171.9,7.8 172.5,7.8 L172.6,9.7 Z M176,2.4 C176.8,2.4 177.4,3.1 177.4,3.8 C177.4,4.5 176.7,5.2 176,5.2 C175.3,5.2 174.6,4.5 174.6,3.8 C174.6,3.1 175.3,2.4 176,2.4 Z M175.1,19.2 L175.1,8.1 L177,8.1 L177,19.5 C177,20.4 177.3,20.7 178.1,20.7 L178.1,22.3 C176.1,22.3 175.1,21.5 175.1,19.2 Z M185.5,14 C189.5,14.4 190.4,15.7 190.4,18 C190.4,20.2 189,22.3 184.7,22.3 C183.4,22.3 181.4,21.9 180.5,21.6 L180.5,19.9 C181.3,20.2 182.7,20.6 184.7,20.6 C187.6,20.6 188.4,19.4 188.4,18 C188.4,16.7 188,15.8 185.3,15.6 C181.2,15.2 180.4,13.8 180.4,11.9 C180.4,9.9 181.7,7.7 185.6,7.7 C186.9,7.7 188.4,7.9 189.7,8.4 L189.7,10.1 C188.6,9.7 187.5,9.4 185.6,9.4 C182.9,9.4 182.2,10.4 182.2,11.8 C182.3,13.1 182.8,13.8 185.5,14 Z M198.7,7.8 C203.4,7.8 204,11 204,15.1 L204,15.9 L194.7,15.9 C194.8,18.4 195.5,20.5 198.6,20.5 C200.6,20.5 201.8,20.3 203.2,19.7 L203.2,21.4 C201.6,22.1 200,22.3 198.6,22.3 C193.9,22.3 192.7,19.1 192.7,15 C192.9,11 194,7.8 198.7,7.8 Z M194.7,14.3 L202,14.3 C202,11.8 201.9,9.5 198.6,9.5 C195.4,9.5 194.8,11.9 194.7,14.3 Z M15.7,9.8 L8.9,9.8 C8.7,9.8 8.5,9.9 8.5,10.1 L8.5,13.4 C8.5,13.6 8.7,13.7 8.8,13.7 L11.4,13.7 L11.4,17.9 C11.4,17.9 10.8,18.1 9.1,18.1 C7.1,18.1 4.4,17.3 4.4,11.4 C4.4,5.4 7.2,4.6 9.9,4.6 C12.2,4.6 13.2,5 13.9,5.2 C14.1,5.3 14.3,5.1 14.3,4.9 L15,1.6 C15,1.5 15,1.4 14.9,1.3 C14.8,1.2 13.2,0.3 9.3,0.3 C4.7,0.3 0,2.3 0,11.7 C0,21.1 5.4,22.5 9.9,22.5 C13.7,22.5 15.9,20.9 15.9,20.9 C16,20.8 16,20.7 16,20.6 L16,10.1 C16.1,9.9 15.9,9.8 15.7,9.8 Z M51.3,1.5 C51.3,1.3 51.2,1.2 51,1.2 L47.1,1.2 C46.9,1.2 46.8,1.4 46.8,1.5 L46.8,9 L40.8,9 L40.8,1.5 C40.8,1.3 40.6,1.2 40.5,1.2 L36.6,1.2 C36.4,1.2 36.3,1.4 36.3,1.5 L36.3,21.7 C36.3,21.9 36.5,22 36.6,22 L40.5,22 C40.7,22 40.8,21.8 40.8,21.7 L40.8,13.1 L46.8,13.1 L46.8,21.7 C46.8,21.9 47,22 47.1,22 L51,22 C51.2,22 51.3,21.8 51.3,21.7 L51.3,1.5 Z M23.1,4.1 C23.1,2.7 22,1.6 20.6,1.6 C19.2,1.6 18.1,2.7 18.1,4.1 C18.1,5.5 19.2,6.6 20.6,6.6 C22,6.6 23.1,5.5 23.1,4.1 Z M22.9,17.4 C22.9,16.9 22.9,8.1 22.9,8.1 C22.9,7.9 22.7,7.8 22.6,7.8 L18.7,7.8 C18.5,7.8 18.3,8 18.3,8.2 C18.3,8.2 18.3,19.4 18.3,21.5 C18.3,21.9 18.6,22 18.9,22 C18.9,22 20.5,22 22.4,22 C22.8,22 22.9,21.8 22.9,21.5 C22.9,20.7 22.9,17.9 22.9,17.4 Z M66.3,7.8 L62.4,7.8 C62.2,7.8 62.1,8 62.1,8.1 L62.1,18 C62.1,18 61.2,18.8 59.7,18.8 C58.3,18.8 58,18.1 58,16.8 C58,15.5 58,8.2 58,8.2 C58,8 57.8,7.9 57.7,7.9 L53.7,7.9 C53.5,7.9 53.4,8.1 53.4,8.2 C53.4,8.2 53.4,13.5 53.4,17.5 C53.4,21.6 55.7,22.5 58.7,22.5 C61.2,22.5 63.2,21.1 63.2,21.1 C63.2,21.1 63.3,21.9 63.3,22 C63.3,22.1 63.5,22.2 63.6,22.2 L66.1,22.2 C66.3,22.2 66.4,22 66.4,21.9 L66.4,8.2 C66.6,7.9 66.5,7.8 66.3,7.8 Z M77,7.3 C74.8,7.3 73.3,8.2 73.3,8.2 L73.3,1.5 C73.3,1.3 73.1,1.2 73,1.2 L69.1,1.2 C68.9,1.2 68.8,1.4 68.8,1.5 L68.8,21.7 C68.8,21.9 69,22 69.1,22 L71.7,22 C71.8,22 71.9,21.9 72,21.8 C72.1,21.7 72.2,20.9 72.2,20.9 C72.2,20.9 73.8,22.4 76.7,22.4 C80.2,22.4 82.3,20.6 82.3,14.4 C82.4,8.2 79.1,7.3 77,7.3 Z M75.5,18.7 C74.2,18.7 73.2,18 73.2,18 L73.2,11.7 C73.2,11.7 74,11.1 75.2,11 C76.6,10.9 77.9,11.3 77.9,14.6 C77.9,18.1 77.3,18.8 75.5,18.7 Z M33.9,7.7 L31,7.7 L31,3.9 C31,3.7 30.9,3.7 30.7,3.7 L26.7,3.7 C26.5,3.7 26.5,3.8 26.5,3.9 L26.5,7.9 C26.5,7.9 24.5,8.4 24.4,8.4 C24.3,8.4 24.2,8.6 24.2,8.7 L24.2,11.2 C24.2,11.4 24.4,11.5 24.5,11.5 L26.5,11.5 C26.5,11.5 26.5,14.1 26.5,17.5 C26.5,21.9 29.6,22.4 31.7,22.4 C32.6,22.4 33.8,22.1 34,22 C34.1,22 34.2,21.8 34.2,21.7 L34.2,19 C34.2,18.8 34,18.7 33.9,18.7 C33.7,18.7 33.3,18.8 32.9,18.8 C31.5,18.8 31,18.1 31,17.3 C31,16.5 31,11.6 31,11.6 L33.9,11.6 C34.1,11.6 34.2,11.4 34.2,11.3 L34.2,8.1 C34.2,7.9 34,7.7 33.9,7.7 Z" id="Shape"></path>
        </g>
    </g>
</svg>
